app/dist/common/images/china-south-publishing-and-media-coltd.svg

<svg height="18" viewBox="0 0 18 18" width="18" xmlns="http://www.w3.org/2000/svg"><path d="m0 0h18v18h-18z" fill="#f0f3fa"/><path d="m13.22 6c2 0 2.53 1.08 2.55 1.67h-1.37c-.13-.59-.69-.69-1.18-.69-.5 0-1.19.1-1.19.64 0 .52 1.19.75 1.68.84.5.08 2.29.25 2.29 1.6s-1.23 1.94-2.78 1.94c-1.25 0-1.88-.52-2.04-.78l.38-1.31c-.02.8 1.2 1.06 1.66 1.06s1.41.02 1.41-.64c0-.65-.61-.77-2.26-1.1h-.02c-1.33-.26-1.64-1.18-1.63-1.61 0-.54.5-1.62 2.5-1.62z"/><path d="m6.5 6h1.5v.5c.34-.26.86-.5 1.56-.5 1.49 0 2.44.88 2.44 1.9v4.1h-1.5v-3.95c0-.37-.42-1.05-1.43-1.05-.97-0-1.02.61-1.07 1h-1.5zm0 4v2h1.5v-2z" fill="#eb1e23"/><path d="m5.11 6c2.24 0 2.86 1.34 2.89 2h-1.53c-.05-.34-.3-1.04-1.36-1.04-1.33 0-1.71 1.15-1.71 2.04s.34 2.03 1.72 2.03c1.1 0 1.33-.59 1.36-1.03h1.52c0 .27-.43 2-2.89 2s-3.11-1.78-3.11-2.76c0-.99.31-3.24 3.11-3.24z"/></svg>

<!-- by TradingView --><svg width="18" height="18" viewBox="0 0 18 18" xmlns="http://www.w3.org/2000/svg"><path fill="#F0F3FA" d="M0 0h18v18H0z"/><path d="M13.22 6c2 0 2.53 1.08 2.55 1.67H14.4c-.13-.59-.69-.69-1.18-.69-.5 0-1.19.1-1.19.64 0 .52 1.19.75 1.68.84.5.08 2.29.25 2.29 1.6S14.77 12 13.22 12c-1.25 0-1.88-.52-2.04-.78l.38-1.31c-.02.8 1.2 1.06 1.66 1.06.46 0 1.41.02 1.41-.64 0-.65-.61-.77-2.26-1.1h-.02c-1.33-.26-1.64-1.18-1.63-1.61 0-.54.5-1.62 2.5-1.62Z"/><path d="M6.5 6H8v.5c.34-.26.86-.5 1.56-.5C11.05 6 12 6.88 12 7.9V12h-1.5V8.05c0-.37-.42-1.05-1.43-1.05C8.1 7 8.05 7.61 8 8H6.5V6Zm0 4v2H8v-2H6.5Z" fill="#EB1E23"/><path d="M5.11 6C7.35 6 7.97 7.34 8 8H6.47c-.05-.34-.3-1.04-1.36-1.04C3.78 6.96 3.4 8.11 3.4 9c0 .89.34 2.03 1.72 2.03 1.1 0 1.33-.59 1.36-1.03H8c0 .27-.43 2-2.89 2S2 10.22 2 9.24C2 8.25 2.31 6 5.11 6Z"/></svg>
